resources/icons/16px/backlink.svg

<?xml version="1.0" encoding="utf-8"?>
<!-- Generator: Adobe Illustrator 18.0.0, SVG Export Plug-In . SVG Version: 6.00 Build 0)  -->
<svg version="1.1" id="Layer_1" xmlns="http://www.w3.org/2000/svg" xmlns:xlink="http://www.w3.org/1999/xlink" x="0px" y="0px"
	 viewBox="0 0 16 16" enable-background="new 0 0 16 16" xml:space="preserve">
<g id="align_top">
	<g>
		<path fill-rule="evenodd" clip-rule="evenodd" d="M14,10 C14.5522848,10 15,10.4477152 15,11 C15,11.5522847 14.5522848,12 14,12 L13.415,12 L15.7071068,14.2928932 C16.0976311,14.6834175 16.0976311,15.3165825 15.7071068,15.7071068 C15.3466228,16.0675907 14.7793918,16.0953203 14.3871006,15.7902954 L14.2928932,15.7071068 L12,13.415 L12,14 C12,14.5522847 11.5522848,15 11,15 C10.4477153,15 10,14.5522847 10,14 L10.0027879,10.9247615 L10.0152813,10.8252925 L10.0274227,10.7664859 L10.0598946,10.6583335 L10.0936734,10.5767785 L10.1459955,10.4792912 L10.2129277,10.3829777 L10.2929109,10.2928592 C10.3282873,10.2574992 10.3656744,10.225313 10.4046934,10.1963346 L10.5159379,10.1246712 L10.6583496,10.0598859 L10.734007,10.0358451 L10.8253458,10.0152717 L10.9407484,10.0017461 L14,10 Z M6.0358331,6.1357559 L2.58578644,9.58578644 L2.46895369,9.71300121 C1.80690142,10.4987886 1.84584567,11.6742728 2.58578644,12.4142136 C3.3257272,13.1541543 4.50121136,13.1930986 5.28699879,12.5310463 L5.41421356,12.4142136 L8.86451252,8.96517256 C9.20273935,10.2330071 8.90771179,11.6346424 7.97942985,12.6690541 L7.82842712,12.8284271 L6.82842712,13.8284271 C5.26632996,15.3905243 2.73367004,15.3905243 1.17157288,13.8284271 C-0.338454386,12.3183999 -0.388788628,9.90143563 1.02057015,8.33094591 L1.17157288,8.17157288 L2.17157288,7.17157288 C3.21849355,6.1246522 4.70136263,5.77937987 6.0358331,6.1357559 Z M10.7071068,4.29289322 C11.0675907,4.65337718 11.0953203,5.22060824 10.7902954,5.61289944 L10.7071068,5.70710678 L5.70710678,10.7071068 C5.31658249,11.0976311 4.68341751,11.0976311 4.29289322,10.7071068 C3.93240926,10.3466228 3.90467972,9.77939176 4.20970461,9.38710056 L4.29289322,9.29289322 L9.29289322,4.29289322 C9.68341751,3.90236893 10.3165825,3.90236893 10.7071068,4.29289322 Z M13.8284271,1.17157288 C15.3384544,2.68160014 15.3887886,5.09856437 13.9794299,6.66905409 L13.8284271,6.82842712 L12.8284271,7.82842712 C11.7817694,8.87508482 10.2993823,9.22044662 8.96517256,8.86451252 L12.4142136,5.41421356 L12.5310463,5.28699879 C13.1930986,4.50121136 13.1541543,3.3257272 12.4142136,2.58578644 C11.6742728,1.84584567 10.4987886,1.80690142 9.71300121,2.46895369 L9.58578644,2.58578644 L6.1357559,6.0358331 C5.79710468,4.76773418 6.09204276,3.36563115 7.02057015,2.33094591 L7.17157288,2.17157288 L8.17157288,1.17157288 C9.73367004,-0.390524292 12.26633,-0.390524292 13.8284271,1.17157288 Z"/>
	</g>
</g>
</svg>

<svg xmlns="http://www.w3.org/2000/svg" viewBox="0 0 16 16">
  <path d="M14 10a1 1 0 1 1 0 2h-.585l2.292 2.293a1 1 0 0 1-1.32 1.497l-.094-.083L12 13.415V14a1 1 0 1 1-2 0l.003-3.075.012-.1.012-.059.033-.108.034-.081.052-.098.067-.096.08-.09a1 1 0 0 1 .112-.097l.11-.071.143-.065.076-.024.091-.02.116-.014zM6.036 6.136l-3.45 3.45-.117.127a2 2 0 0 0 2.818 2.818l.127-.117 3.45-3.449a4 4 0 0 1-.885 3.704l-.15.16-1 1A4 4 0 0 1 1.02 8.33l.15-.16 1-1a4 4 0 0 1 3.865-1.035m4.671-1.843a1 1 0 0 1 .083 1.32l-.083.094-5 5a1 1 0 0 1-1.497-1.32l.083-.094 5-5a1 1 0 0 1 1.414 0m3.121-3.121a4 4 0 0 1 .151 5.497l-.15.16-1 1a4 4 0 0 1-3.864 1.036l3.45-3.45.116-.128a2 2 0 0 0-2.818-2.818l-.127.117-3.45 3.45A4 4 0 0 1 7.02 2.33l.15-.16 1-1a4 4 0 0 1 5.657 0"/>
</svg>
